X:1
T: How she got up in the morning
C:
R:Jig
Q:180
K:A
M:6/8
L:1/16
|:AG|E2A2A2 A2d2c2|A2E2E2 E4D2|E2=G2G2 G2A2B2|A2=G2E2 E4D2|
E2A2A2 A2G2A2|B2c2B2 d4e2|=g2d2d2 e2d2B2|A6 A4e2|
e2a2a2 a2g2a2|b2a2b2 a4=g2|d2=g2g2 g2f2g2|a2=g2a2 g4e2|
e2a2a2 a2g2a2|b2a2b2 a4=g2|e2d2e2 =g2d2B2|A6 A4:|
